assets/images/icons/services_iron.svg

<svg width="86" height="65" viewBox="0 0 86 65" fill="none" xmlns="http://www.w3.org/2000/svg">
<path d="M27.52 1.35999C26.66 1.35999 25.6992 1.76311 25.155 2.48874C24.6108 3.21436 24.51 4.03405 24.5638 4.79999C24.678 6.33186 25.4305 7.87045 26.7138 9.36874C29.2803 12.3653 34.1245 15.12 41.28 15.12C48.1398 15.12 51.9695 14.1995 54.61 13.2925C57.2505 12.3855 58.3859 11.68 60.4688 11.68C62.5516 11.68 66.0453 12.4661 68.8538 14.7437C71.6622 17.0214 73.96 20.71 73.96 27.16H63.64V25.1712C63.64 22.5039 61.4161 20.28 58.7488 20.28H49.6113C46.9439 20.28 44.72 22.5039 44.72 25.1712V27.2137C31.4169 27.8117 18.5908 35.3031 6.02 53.3362C5.95953 53.4034 5.90578 53.4773 5.85875 53.5512C5.73109 53.6789 5.62359 53.82 5.53625 53.9812C5.49594 54.0484 5.46234 54.1223 5.42875 54.1962C3.76922 56.6217 2.12984 59.242 0.48375 62.0437C0.443438 62.0975 0.409843 62.1512 0.37625 62.205C0.362813 62.2251 0.335938 62.2386 0.3225 62.2587C0.302343 62.2789 0.288907 62.2923 0.26875 62.3125C0.248593 62.3461 0.235157 62.3864 0.215 62.42C0.194843 62.4401 0.181407 62.4536 0.16125 62.4737C0.16125 62.5073 0.16125 62.5476 0.16125 62.5812C0.141094 62.6148 0.120938 62.6551 0.1075 62.6887C0.0873438 62.7089 0.0739063 62.7223 0.05375 62.7425C0.05375 62.7626 0.05375 62.7761 0.05375 62.7962C0.05375 62.8298 0.05375 62.8701 0.05375 62.9037C0.0335938 62.9239 0.0201563 62.9373 0 62.9575C0 62.9911 0 63.0314 0 63.065C0 63.0851 0 63.0986 0 63.1187C0 63.1523 0 63.1926 0 63.2262C0 63.2464 0 63.2598 0 63.28C0 63.3337 0 63.3875 0 63.4412C0 63.4614 0 63.4748 0 63.495C0 63.5286 0 63.5689 0 63.6025C0 63.6226 0 63.6361 0 63.6562C0.0134375 63.6898 0.0335938 63.7301 0.05375 63.7637C0.05375 63.7839 0.05375 63.7973 0.05375 63.8175C0.0671875 63.8511 0.0873438 63.8914 0.1075 63.925C0.120938 63.9586 0.141094 63.9989 0.16125 64.0325C0.16125 64.0526 0.16125 64.0661 0.16125 64.0862C0.181407 64.1064 0.194843 64.1198 0.215 64.14C0.262032 64.2139 0.315782 64.2878 0.37625 64.355C0.389688 64.3886 0.409843 64.4289 0.43 64.4625C0.450157 64.4826 0.463593 64.4961 0.48375 64.5162C0.503907 64.5162 0.517343 64.5162 0.5375 64.5162C0.550938 64.5498 0.571093 64.5901 0.59125 64.6237C0.611407 64.6237 0.624843 64.6237 0.645 64.6237C0.678593 64.6641 0.712188 64.6976 0.7525 64.7312C0.772657 64.7312 0.786093 64.7312 0.80625 64.7312C0.839843 64.7514 0.880157 64.7715 0.91375 64.785C0.9675 64.8253 1.02125 64.8589 1.075 64.8925C1.17578 64.9395 1.29 64.9731 1.3975 65C1.41766 65 1.43109 65 1.45125 65C1.48484 65 1.52516 65 1.55875 65C1.57891 65 1.59234 65 1.6125 65C1.72 65.0067 1.8275 65.0067 1.935 65H82.56C84.4413 65 86 63.4412 86 61.56V56.9912C86.0067 56.9039 86.0067 56.8098 86 56.7225V56.4C86.0134 56.2925 86.0134 56.185 86 56.0775V29.2025C86.0134 29.095 86.0134 28.9875 86 28.88C86 28.8061 86 28.7389 86 28.665C86.0067 28.5911 86.0067 28.5239 86 28.45C85.9194 18.9094 83.2184 12.0495 78.5825 7.64874C73.8794 3.18077 67.3689 1.35999 60.2 1.35999H27.52ZM28.0575 4.79999H60.2C66.7911 4.79999 72.3206 6.4192 76.2175 10.1212C79.8591 13.5747 82.2106 19.0034 82.5062 27.16H77.4C77.4 19.85 74.5647 14.9386 71.0038 12.0562C67.4428 9.17389 63.3444 8.23999 60.4688 8.23999C57.5931 8.23999 55.8395 9.25452 53.4813 10.0675C51.123 10.8805 47.8442 11.68 41.28 11.68C35.0114 11.68 31.1548 9.27467 29.2938 7.11124C28.4405 6.11686 28.1381 5.2703 28.0575 4.79999ZM49.6113 23.72H58.7488C59.555 23.72 60.2 24.365 60.2 25.1712V27.16H48.16V25.1712C48.16 24.365 48.805 23.72 49.6113 23.72ZM46.4938 30.6H82.56V52.96H10.535C22.5817 36.5192 34.3059 30.6 46.4938 30.6ZM41.28 39.2C39.3786 39.2 37.84 40.7386 37.84 42.64C37.84 44.5414 39.3786 46.08 41.28 46.08C43.1814 46.08 44.72 44.5414 44.72 42.64C44.72 40.7386 43.1814 39.2 41.28 39.2ZM53.32 39.2C51.4186 39.2 49.88 40.7386 49.88 42.64C49.88 44.5414 51.4186 46.08 53.32 46.08C55.2214 46.08 56.76 44.5414 56.76 42.64C56.76 40.7386 55.2214 39.2 53.32 39.2ZM65.36 39.2C63.4586 39.2 61.92 40.7386 61.92 42.64C61.92 44.5414 63.4586 46.08 65.36 46.08C67.2614 46.08 68.8 44.5414 68.8 42.64C68.8 40.7386 67.2614 39.2 65.36 39.2ZM8.11625 56.4H82.56V56.7225C82.56 56.7762 82.56 56.83 82.56 56.8837V61.56H4.78375C5.88562 59.7526 7.02109 58.0259 8.11625 56.4Z" fill="#390303" stroke="#390303" stroke-width="1.72"/>
</svg>

<svg width="86" height="65" fill="none" xmlns="http://www.w3.org/2000/svg"><path d="M27.52 1.36c-.86 0-1.82.403-2.365 1.129-.544.725-.645 1.545-.591 2.311.114 1.532.866 3.07 2.15 4.569 2.566 2.996 7.41 5.751 14.566 5.751 6.86 0 10.69-.92 13.33-1.827 2.64-.907 3.776-1.613 5.859-1.613s5.576.786 8.385 3.064c2.808 2.277 5.106 5.966 5.106 12.416H63.64v-1.989c0-2.667-2.224-4.891-4.891-4.891H49.61c-2.667 0-4.891 2.224-4.891 4.891v2.043c-13.303.598-26.13 8.09-38.7 26.122-.06.067-.114.141-.161.215a1.85 1.85 0 0 0-.323.43 2.14 2.14 0 0 0-.107.215c-1.66 2.426-3.3 5.046-4.945 7.848a2.24 2.24 0 0 0-.108.161c-.013.02-.04.034-.053.054l-.054.053c-.02.034-.034.074-.054.108l-.054.054v.107a.802.802 0 0 0-.054.108l-.053.053v.162L0 62.957V63.657a.802.802 0 0 0 .054.108v.053a.802.802 0 0 0 .053.108.802.802 0 0 0 .054.108v.053l.054.054c.047.074.1.148.161.215a.802.802 0 0 0 .054.108l.054.053h.053a.802.802 0 0 0 .054.108h.054c.034.04.067.074.107.107h.054c.034.02.074.04.108.054.053.04.107.074.161.108.1.046.215.08.323.107h.215c.107.007.214.007.322 0H82.56c1.881 0 3.44-1.559 3.44-3.44v-4.569a1.799 1.799 0 0 0 0-.269V56.4a1.299 1.299 0 0 0 0-.322V29.201a1.299 1.299 0 0 0 0-.322v-.215a1.152 1.152 0 0 0 0-.215c-.08-9.54-2.782-16.4-7.418-20.801C73.88 3.18 67.37 1.36 60.2 1.36H27.52Zm.538 3.44H60.2c6.591 0 12.12 1.62 16.017 5.321 3.642 3.454 5.994 8.882 6.29 17.039H77.4c0-7.31-2.835-12.221-6.396-15.104-3.561-2.882-7.66-3.816-10.535-3.816-2.876 0-4.63 1.015-6.988 1.828-2.358.813-5.637 1.612-12.201 1.612-6.269 0-10.125-2.405-11.986-4.569-.854-.994-1.156-1.84-1.236-2.311ZM49.61 23.72h9.138c.806 0 1.451.645 1.451 1.451v1.989H48.16v-1.989c0-.806.645-1.451 1.451-1.451Zm-3.117 6.88H82.56v22.36H10.535C22.582 36.52 34.305 30.6 46.494 30.6Zm-5.214 8.6a3.438 3.438 0 0 0-3.44 3.44 3.438 3.438 0 0 0 3.44 3.44 3.438 3.438 0 0 0 3.44-3.44 3.438 3.438 0 0 0-3.44-3.44Zm12.04 0a3.438 3.438 0 0 0-3.44 3.44 3.438 3.438 0 0 0 3.44 3.44 3.438 3.438 0 0 0 3.44-3.44 3.438 3.438 0 0 0-3.44-3.44Zm12.04 0a3.438 3.438 0 0 0-3.44 3.44 3.438 3.438 0 0 0 3.44 3.44 3.438 3.438 0 0 0 3.44-3.44 3.438 3.438 0 0 0-3.44-3.44ZM8.116 56.4H82.56v5.16H4.784a135.45 135.45 0 0 1 3.332-5.16Z" fill="#390303" stroke="#390303" stroke-width="1.72"/></svg>
